X: 33234
T: Pull Down The Blinds
R: waltz
M: 3/4
K: Dmajor
F|DFG|A2B|Ade|f2a|agf|ede|fdB|AFE|
DFG|A2B|Ade|f2g|agf|edB|Afe|d2||
d/e/|fdf|ece|dcB|AFA|B2c|d2c/d/|edB|AFA|
fdf|ece|dcB|AFA|B2c|d2B|Afe|d2||

